style-guide/assets/xd-icons-radio-empty-small.svg

<svg viewBox="0 0 18 18" xmlns="http://www.w3.org/2000/svg">
  <path d="M9 3C5.691 3 3 5.691 3 9s2.691 6 6 6 6-2.691 6-6-2.691-6-6-6m0 14c-4.411 0-8-3.589-8-8s3.589-8 8-8 8 3.589 8 8-3.589 8-8 8" fill="#000" fill-rule="evenodd"/>
</svg>

<?xml version="1.0" encoding="UTF-8"?>
<svg width="18px" height="18px" viewBox="0 0 18 18" version="1.1" xmlns="http://www.w3.org/2000/svg" xmlns:xlink="http://www.w3.org/1999/xlink">
    <!-- Generator: Sketch 51.3 (57544) - http://www.bohemiancoding.com/sketch -->
    <title>radio empty</title>
    <desc>Created with Sketch.</desc>
    <defs></defs>
    <g id="radio-empty" stroke="none" stroke-width="1" fill="none" fill-rule="evenodd">
        <path d="M9,3 C5.691,3 3,5.691 3,9 C3,12.309 5.691,15 9,15 C12.309,15 15,12.309 15,9 C15,5.691 12.309,3 9,3 M9,17 C4.589,17 1,13.411 1,9 C1,4.589 4.589,1 9,1 C13.411,1 17,4.589 17,9 C17,13.411 13.411,17 9,17" id="Fill-1" fill="#000000"></path>
    </g>
</svg>
